!!!OTL: HERZ VOLL MUTH BLICK VOLL GLUTH
!!!ARE: Europa, Mitteleuropa, Deutschland
!!!SCT: F0419
!!!YEM: Copyright 1995, estate of Helmut Schaffrath.
**kern
*ICvox
*Ivox
*M3/4
*k[f#c#]
*D:
=1
{4.d
8d
4e
=2
4.e
8e
4f#}
=3
{8.d
16e
8f#
8d
8g
8f#
=4
2e
4r}
=5
{8.e
16e
4e
8f#
8e
=6
4d
8.d
16d
8e
8d
=7
2c#
4r}
=8
{16A
16B
16c#
16d
8e
8f#
4e
=9
16A
16B
16c#
16d
8e
8f#
4e}
=10
{8.f#
16g
2a
=11
8.f#
16g
2a}
=12
{8d
16e
16f#
4g
4e
=13
2d
4r}
==
!!!AGN: Vaterlands -, Heimat - Lied, nationalistisch
!!!ONB: ESAC (Essen Associative Code) Database: FINK
!!!AMT: simple triple
!!!AIN: vox
!!!EED: Helmut Schaffrath
!!!EEV: 1.0
*-
